assets/icons/add-to-basket.svg

<svg width="20" height="18" xmlns="http://www.w3.org/2000/svg"><g fill="#CCC" fill-rule="nonzero"><circle cx="7" cy="16" r="2"/><circle cx="15" cy="16" r="2"/><path d="M20 3.4V4l-1.8 6.3c-.1.4-.5.7-1 .7H6.7c-.4 0-.8-.3-1-.7L3.3 2.9c-.2-.6-.7-.9-1.2-.9H.4C.2 2 0 1.8 0 1.6V.4C0 .2.2 0 .4 0h2.5c1 0 1.8.6 2.1 1.6l.1.4 2.3 6.8c0 .1.2.2.3.2h8.6c.1 0 .3-.1.3-.2l1.3-4.4c0-.2-.2-.4-.4-.4H9.4c-.2 0-.4-.2-.4-.4V2.4c0-.2.2-.4.4-.4h9.2c.8 0 1.4.6 1.4 1.4z"/></g></svg>

<?xml version="1.0" encoding="UTF-8"?>
<svg width="20px" height="18px" viewBox="0 0 20 18" version="1.1" xmlns="http://www.w3.org/2000/svg" xmlns:xlink="http://www.w3.org/1999/xlink">
    <!-- Generator: Sketch 64 (93537) - https://sketch.com -->
    <title>Group Copy 39</title>
    <desc>Created with Sketch.</desc>
    <g id="Page-1" stroke="none" stroke-width="1" fill="none" fill-rule="evenodd">
        <g id="mobile-Wishlist" transform="translate(-218.000000, -1656.000000)" fill="#CCCCCC" fill-rule="nonzero">
            <g id="Baxdiqlariniz" transform="translate(0.000000, 1232.000000)">
                <g id="Group-12" transform="translate(16.000000, 84.000000)">
                    <g id="Group-Copy-39" transform="translate(202.000000, 340.000000)">
                        <circle id="Oval" cx="7" cy="16" r="2"></circle>
                        <circle id="Oval" cx="15" cy="16" r="2"></circle>
                        <path d="M20,3.4 L20,4 L18.2,10.3 C18.1,10.7 17.7,11 17.2,11 L6.7,11 C6.3,11 5.9,10.7 5.7,10.3 L3.3,2.9 C3.1,2.3 2.6,2 2.1,2 L0.4,2 C0.2,2 0,1.8 0,1.6 L0,0.4 C0,0.2 0.2,0 0.4,0 L2.9,0 C3.9,0 4.7,0.6 5,1.6 L5.1,2 L7.4,8.8 C7.4,8.9 7.6,9 7.7,9 L16.3,9 C16.4,9 16.6,8.9 16.6,8.8 L17.9,4.4 C17.9,4.2 17.7,4 17.5,4 L9.4,4 C9.2,4 9,3.8 9,3.6 L9,2.4 C9,2.2 9.2,2 9.4,2 L18.6,2 C19.4,2 20,2.6 20,3.4 Z" id="Path"></path>
                    </g>
                </g>
            </g>
        </g>
    </g>
</svg>
